X: 1
M: 4/4
L: 1/4
K: F
F3/2 F/ c3/2 c/ | B A G F | F3/2 F/ F A | G E C2 :|
B3/2 c/ d d | c A c3/2 B/ | A2 G2 | F4 |
